folder-remove-outline.svg

<svg fill="currentColor" viewBox="0 0 24 24"><path d="M13 19c0 .34.04.67.09 1H4a2 2 0 0 1-2-2V6c0-1.11.89-2 2-2h6l2 2h8a2 2 0 0 1 2 2v5.81c-.61-.35-1.28-.59-2-.72V8H4v10h9.09c-.05.33-.09.66-.09 1m9.54-2.12-1.42-1.41L19 17.59l-2.12-2.12-1.41 1.41L17.59 19l-2.12 2.12 1.41 1.42L19 20.41l2.12 2.13 1.42-1.42L20.41 19z"/></svg>

<svg  viewBox="0 0 24 24" fill="currentColor"><path  d="M13 19C13 19.34 13.04 19.67 13.09 20H4C2.9 20 2 19.11 2 18V6C2 4.89 2.89 4 4 4H10L12 6H20C21.1 6 22 6.89 22 8V13.81C21.39 13.46 20.72 13.22 20 13.09V8H4V18H13.09C13.04 18.33 13 18.66 13 19M22.54 16.88L21.12 15.47L19 17.59L16.88 15.47L15.47 16.88L17.59 19L15.47 21.12L16.88 22.54L19 20.41L21.12 22.54L22.54 21.12L20.41 19L22.54 16.88Z"/></svg>
